src/assets/site/seta.svg

<svg xmlns="http://www.w3.org/2000/svg" width="15" height="15" fill="none"><path fill="#007AFF" d="M11.0415 7.49992 7.49984 11.0416V8.91658H4.6665V6.08325h2.83334v-2.125l3.54166 3.54167Zm-10.624996 0c0-.9302.183216-1.85129.539187-2.71068.355969-.85939.877729-1.64025 1.535469-2.29799.65775-.65775 1.43861-1.17951 2.298-1.53548C5.64855.5998 6.56964.416585 7.49984.416584c1.87861.000001 3.68026.746276 5.00866 2.074666 1.3284 1.32838 2.0747 3.13005 2.0747 5.00867 0 .93019-.1832 1.85128-.5392 2.71068-.356.8594-.8777 1.6402-1.5355 2.298-1.3284 1.3284-3.13005 2.0747-5.00866 2.0747-1.87862 0-3.68029-.7463-5.00868-2.0747C1.16278 11.1802.416504 9.37854.416504 7.49992Zm1.416666 0c0 1.50289.59702 2.94428 1.65973 4.00698 1.06271 1.0627 2.50404 1.6597 4.00694 1.6597 1.50289 0 2.94426-.597 4.00696-1.6597 1.0627-1.0627 1.6597-2.50409 1.6597-4.00698 0-1.5029-.597-2.94423-1.6597-4.00694S9.00273 1.83325 7.49984 1.83325c-1.5029 0-2.94423.59702-4.00694 1.65973S1.83317 5.99702 1.83317 7.49992Z"/></svg>

<svg width="15" height="15" viewBox="0 0 15 15" fill="none" xmlns="http://www.w3.org/2000/svg">
<path d="M11.0415 7.49992L7.49984 11.0416V8.91658H4.6665L4.6665 6.08325H7.49984V3.95825L11.0415 7.49992ZM0.416504 7.49992C0.416504 6.56972 0.59972 5.64863 0.955691 4.78924C1.31166 3.92985 1.83342 3.14899 2.49116 2.49125C3.14891 1.8335 3.92977 1.31174 4.78916 0.95577C5.64855 0.5998 6.56964 0.416585 7.49984 0.416584C9.37845 0.416585 11.1801 1.16286 12.5085 2.49125C13.8369 3.81963 14.5832 5.6213 14.5832 7.49992C14.5832 8.43011 14.4 9.3512 14.044 10.2106C13.688 11.07 13.1663 11.8508 12.5085 12.5086C11.1801 13.837 9.37845 14.5833 7.49984 14.5833C5.62122 14.5833 3.81955 13.837 2.49116 12.5086C1.16278 11.1802 0.416504 9.37854 0.416504 7.49992ZM1.83317 7.49992C1.83317 9.00281 2.43019 10.4442 3.4929 11.5069C4.55561 12.5696 5.99694 13.1666 7.49984 13.1666C9.00273 13.1666 10.4441 12.5696 11.5068 11.5069C12.5695 10.4442 13.1665 9.00281 13.1665 7.49992C13.1665 5.99702 12.5695 4.55569 11.5068 3.49298C10.4441 2.43027 9.00273 1.83325 7.49984 1.83325C5.99694 1.83325 4.55561 2.43027 3.4929 3.49298C2.43019 4.55569 1.83317 5.99702 1.83317 7.49992Z" fill="#007AFF"/>
</svg>
